public/art/nature/oak.svg

<svg xmlns="http://www.w3.org/2000/svg" width="64" height="64" shape-rendering="crispEdges" viewBox="0 -0.5 48 54"><path stroke="#0b262d" d="M21 0h4m-6 1h2m4 0h2M16 2h3m8 0h3M15 3h1m14 0h1M14 4h1m16 0h1M14 5h1m16 0h1M14 6h1m16 0h1M13 7h1m18 0h1M11 8h2m20 0h2M10 9h1m24 0h1M9 10h1m26 0h1M9 11h1m26 0h1M9 12h1m26 0h1M8 13h1m28 0h1M5 14h3m30 0h3M4 15h1m36 0h1M4 16h1m36 0h1M3 17h1m38 0h1M3 18h1m38 0h1M3 19h1m38 0h1M3 20h1m38 0h1M4 21h1m36 0h1M3 22h1m38 0h1M3 23h1m38 0h1M2 24h1m40 0h1M2 25h1m40 0h1M2 26h1m40 0h1M3 27h1m38 0h1M4 28h1m36 0h1M3 29h1m38 0h1M2 30h1m40 0h1M2 31h1m40 0h1M2 32h1m40 0h1M2 33h1m40 0h1M3 34h1m38 0h1M4 35h1m4 0h1m26 0h1m4 0h1M5 36h4m1 0h1m24 0h1m1 0h4m-30 1h1m22 0h1m-23 1h4m14 0h4"/><path stroke="#164a45" d="M21 1h4m-6 1h2m4 0h2M16 3h4m6 0h4M15 4h2m3 0h1m4 0h1m3 0h2M15 5h2m12 0h2M15 6h1m14 0h1M14 7h2m14 0h2M13 8h3m14 0h3M11 9h2m20 0h2m-25 1h2m22 0h2m-26 1h1m24 0h1m-26 1h1m24 0h1M9 13h1m26 0h1M8 14h2m26 0h2M5 15h2m3 0h1m24 0h1m3 0h2M5 16h1m34 0h1M4 17h1m36 0h1M4 18h3m32 0h3M4 19h2m34 0h2M4 20h2m34 0h2M5 21h1m34 0h1M4 22h1m1 0h1m32 0h1m1 0h1M4 23h1m36 0h1M3 24h3m34 0h3M3 25h5m30 0h5M3 26h1m3 0h1m30 0h1m3 0h1M4 27h1m36 0h1M5 28h1m34 0h1M4 29h1m1 0h1m32 0h1m1 0h1M3 30h1m38 0h1M3 31h2m36 0h2M3 32h3m1 0h2m28 0h2m1 0h3M3 33h3m1 0h2m2 0h1m22 0h1m2 0h2m1 0h3M4 34h4m1 0h1m1 0h1m5 0h1m10 0h1m5 0h1m1 0h1m1 0h4M5 35h4m1 0h3m3 0h1m12 0h1m3 0h3m1 0h4m-30 1h6m11 0h2m2 0h3m-23 1h4m1 0h1m5 0h2m3 0h1m1 0h4m-17 1h4m2 0h2m2 0h2m-11 1h6m1 0h3m-9 1h8m7 2h1m-23 1h1m19 0h2m-3 3h1m-19 1h1m7 0h1m-8 1h1"/><path stroke="#22783f" d="M21 2h4m-5 1h6m-9 1h3m1 0h4m1 0h3M17 5h1m1 0h3m2 0h3m1 0h1M16 6h1m2 0h2m4 0h2m2 0h1M16 7h3m2 0h1m2 0h1m2 0h3M16 8h1m1 0h1m2 0h4m2 0h1m1 0h1M15 9h1m2 0h2m2 0h2m2 0h2m2 0h1m-19 1h2m2 0h1m1 0h2m6 0h2m1 0h1m2 0h2m-23 1h3m1 0h2m12 0h6m-24 1h2m20 0h2m-25 1h3m20 0h3m-26 1h4m18 0h4M7 15h3m1 0h1m1 0h2m16 0h4m1 0h3M6 16h5m3 0h2m14 0h3m1 0h6M5 17h2m1 0h2m25 0h2m2 0h2M9 18h1m25 0h1m2 0h1M6 19h2m1 0h2m2 0h1m18 0h1m2 0h5M6 20h8m19 0h7M6 21h3m1 0h3m21 0h2m1 0h3M5 22h1m1 0h1m2 0h1m24 0h1m2 0h1m1 0h1M5 23h3m2 0h1m4 0h1m14 0h1m4 0h2m1 0h3M6 24h3m1 0h1m3 0h1m15 0h2m3 0h5M8 25h4m2 0h1m3 0h2m6 0h2m3 0h2m1 0h4M4 26h3m1 0h2m1 0h4m3 0h2m7 0h3m1 0h4m1 0h2m1 0h3M5 27h5m1 0h4m2 0h2m8 0h7m3 0h4M6 28h3m2 0h5m1 0h2m9 0h6m3 0h3M5 29h1m1 0h2m2 0h2m2 0h4m1 0h1m4 0h1m1 0h4m2 0h2m2 0h2m1 0h1M4 30h5m1 0h2m3 0h7m2 0h7m3 0h2m1 0h5M5 31h7m2 0h2m2 0h2m6 0h2m2 0h2m2 0h7M6 32h1m2 0h3m1 0h2m3 0h2m2 0h2m2 0h2m3 0h2m1 0h3m2 0h1M6 33h1m2 0h2m1 0h4m1 0h12m1 0h4m1 0h2m2 0h1M8 34h1m1 0h1m1 0h5m1 0h1m1 0h6m1 0h1m1 0h5m1 0h1m1 0h1m-25 1h3m1 0h2m2 0h4m2 0h2m1 0h3m-16 1h3m2 0h2m2 0h2m2 0h2m-14 1h5m2 0h3m-7 1h2m2 0h2m-3 1h1m7 1h2m-21 1h1m20 0h1m-23 1h1m20 0h1"/><path stroke="#679c30" d="M18 5h1m3 0h2m3 0h1M17 6h2m2 0h4m2 0h2M19 7h2m1 0h2m1 0h2M17 8h1m1 0h2m4 0h2m1 0h1M13 9h2m1 0h1m3 0h2m2 0h2m3 0h1m1 0h2m-19 1h2m4 0h1m1 0h2m1 0h1m4 0h2m-18 1h1m2 0h4m4 0h4m-16 1h4m2 0h2m4 0h2m2 0h4m-20 1h2m1 0h1m2 0h2m4 0h2m2 0h1m1 0h2m-19 1h1m2 0h1m1 0h2m4 0h2m1 0h1m2 0h1m-20 1h1m2 0h4m8 0h4m-20 1h1m1 0h1m2 0h1m12 0h1M7 17h1m2 0h1m3 0h3m3 0h2m2 0h2m3 0h3m5 0h2M7 18h2m1 0h2m1 0h2m2 0h1m2 0h1m4 0h1m2 0h1m2 0h2m1 0h1m1 0h2M8 19h1m2 0h2m4 0h1m10 0h1m4 0h2m-21 1h1m1 0h1m2 0h1m6 0h1m2 0h1m1 0h2M9 21h1m3 0h8m4 0h7m1 0h1m2 0h1M8 22h2m1 0h1m2 0h2m3 0h1m2 0h2m2 0h1m2 0h2m3 0h1m1 0h2M8 23h2m1 0h1m2 0h1m4 0h1m2 0h2m2 0h1m2 0h1m1 0h1m2 0h1m2 0h1M9 24h1m1 0h3m4 0h10m4 0h3m-23 1h2m3 0h1m2 0h2m2 0h2m2 0h3m2 0h1m-24 1h1m4 0h3m2 0h1m4 0h2m3 0h1m4 0h1m-26 1h1m4 0h2m2 0h2m4 0h2m7 0h3M9 28h2m5 0h1m2 0h2m4 0h3m6 0h3M9 29h2m2 0h2m4 0h1m1 0h1m2 0h1m1 0h1m4 0h2m2 0h2M9 30h1m2 0h3m7 0h2m7 0h3m2 0h1m-25 1h2m2 0h2m2 0h6m2 0h2m2 0h2m-22 1h1m2 0h3m2 0h2m2 0h2m2 0h3m2 0h1m-18 1h1m12 0h1m-11 1h1m6 0h1m-8 1h2m4 0h2m-7 1h2m2 0h2m6 6h1m-20 1h1m0 4h1m7 0h1m-8 1h1"/><path stroke="#9abf44" d="M17 9h1m10 0h1m-12 1h1m3 0h1m2 0h1m3 0h1m-8 1h4m-7 1h1m2 0h4m2 0h1m-11 1h1m3 0h1m2 0h1m3 0h1m-14 1h1m2 0h1m8 0h1m2 0h1m-12 1h2m1 0h2m1 0h2m-15 1h1m4 0h2m1 0h6m1 0h2m4 0h1m-23 1h3m3 0h1m4 0h2m4 0h1m3 0h3m-23 1h1m5 0h2m1 0h1m2 0h1m1 0h2m5 0h1m-20 1h1m3 0h2m1 0h1m2 0h1m1 0h2m3 0h1m-17 1h1m1 0h2m1 0h2m2 0h2m1 0h2m1 0h1m-10 1h4m7 0h1m-21 1h1m3 0h1m1 0h1m1 0h1m4 0h1m1 0h1m3 0h1m1 0h1m-22 1h2m2 0h1m1 0h1m2 0h1m2 0h1m2 0h1m4 0h2m-19 1h1m1 0h1m10 0h1m-14 1h2m5 0h2m-3 1h4m-4 1h4m-4 1h4m-3 1h2m8 12h2m-21 1h1m1 3h1m6 0h1m7 0h2m-18 1h2m6 0h2m5 0h2m-16 1h2m6 0h2m4 0h1m-14 1h1"/><path stroke="#d8d788" d="M17 12h1m10 0h1m-14 1h1m2 0h1m3 0h2m3 0h1m2 0h1m-15 1h1m4 0h4m4 0h1m-9 1h1m2 0h1m-6 1h1m6 0h1m-9 1h2m6 0h2m-13 1h2m5 0h2m5 0h2m-16 1h2m3 0h1m1 0h2m1 0h1m3 0h2m-9 1h2m-11 2h1m3 0h1m3 0h1m2 0h1m3 0h1m3 0h1m-16 1h1m2 0h1m4 0h1m2 0h1m-13 1h1m12 0h1"/><path stroke="#5f253e" d="M16 37h1m12 0h1m-14 1h1m12 0h1m-13 1h1m10 0h1m-11 1h1m8 0h1m-9 1h8m3 0h1"/><path stroke="#140510" d="M15 39h1m14 0h1m-16 1h1m14 0h1m-17 1h1m16 0h1m-18 1h1m16 0h1m-20 2h2m18 0h2m-23 1h1m22 0h1m-24 1h1m5 0h1m10 0h1m5 0h1m-15 1h1m4 0h1"/><path stroke="#7f3748" d="M16 39h1m12 0h1m-14 1h2m10 0h2m-15 1h1m1 0h2m8 0h1m-10 1h4m2 0h3m-9 1h2m6 0h2m-13 1h1m2 0h1m7 0h2m1 0h1m-14 1h2m5 0h1m3 0h3m-14 1h1m4 0h1m2 0h1"/><path stroke="rgba(19,6,17,0.3607843137254902)" d="M31 39h3m-24 1h3m18 0h1m2 0h1M9 41h4m22 0h3M9 42h3m23 0h5m1 0h2M5 43h7m22 0h9M4 44h8m22 0h9M4 45h7m24 0h6M4 46h7m24 0h6m1 0h1M4 47h1m2 0h6m17 0h13M6 48h8m3 0h26M5 49h38M8 50h4m1 0h25m3 0h2M8 51h3m3 0h24M9 52h2m3 0h4m1 0h7m2 0h5m3 0h2m-11 1h4"/><path stroke="#944c4c" d="M16 41h1m11 0h2m-14 1h2m4 0h2m3 0h1m2 0h1m-17 1h1m1 0h2m2 0h1m3 0h2m5 0h1m-16 1h2m1 0h3m2 0h2m2 0h1m-17 1h1m1 0h1m3 0h1m2 0h1m2 0h1m1 0h1m6 0h1m-22 1h2m6 0h1m6 0h1m4 0h2m-17 1h1m1 0h1m8 0h1"/><path stroke="#b16c59" d="M15 42h1m12 0h2m-15 1h1m5 0h3m4 0h3m-17 1h1m7 0h2m6 0h2m-19 1h1m5 0h2m4 0h1m6 0h1m-15 1h2m5 0h2m-9 1h1m7 0h2"/></svg>

<svg xmlns="http://www.w3.org/2000/svg" width="64" height="64" viewBox="0 -0.5 48 54" shape-rendering="crispEdges">
<path stroke="#0b262d" d="M21 0h4M19 1h2M25 1h2M16 2h3M27 2h3M15 3h1M30 3h1M14 4h1M31 4h1M14 5h1M31 5h1M14 6h1M31 6h1M13 7h1M32 7h1M11 8h2M33 8h2M10 9h1M35 9h1M9 10h1M36 10h1M9 11h1M36 11h1M9 12h1M36 12h1M8 13h1M37 13h1M5 14h3M38 14h3M4 15h1M41 15h1M4 16h1M41 16h1M3 17h1M42 17h1M3 18h1M42 18h1M3 19h1M42 19h1M3 20h1M42 20h1M4 21h1M41 21h1M3 22h1M42 22h1M3 23h1M42 23h1M2 24h1M43 24h1M2 25h1M43 25h1M2 26h1M43 26h1M3 27h1M42 27h1M4 28h1M41 28h1M3 29h1M42 29h1M2 30h1M43 30h1M2 31h1M43 31h1M2 32h1M43 32h1M2 33h1M43 33h1M3 34h1M42 34h1M4 35h1M9 35h1M36 35h1M41 35h1M5 36h4M10 36h1M35 36h1M37 36h4M11 37h1M34 37h1M12 38h4M30 38h4" />
<path stroke="#164a45" d="M21 1h4M19 2h2M25 2h2M16 3h4M26 3h4M15 4h2M20 4h1M25 4h1M29 4h2M15 5h2M29 5h2M15 6h1M30 6h1M14 7h2M30 7h2M13 8h3M30 8h3M11 9h2M33 9h2M10 10h2M34 10h2M10 11h1M35 11h1M10 12h1M35 12h1M9 13h1M36 13h1M8 14h2M36 14h2M5 15h2M10 15h1M35 15h1M39 15h2M5 16h1M40 16h1M4 17h1M41 17h1M4 18h3M39 18h3M4 19h2M40 19h2M4 20h2M40 20h2M5 21h1M40 21h1M4 22h1M6 22h1M39 22h1M41 22h1M4 23h1M41 23h1M3 24h3M40 24h3M3 25h5M38 25h5M3 26h1M7 26h1M38 26h1M42 26h1M4 27h1M41 27h1M5 28h1M40 28h1M4 29h1M6 29h1M39 29h1M41 29h1M3 30h1M42 30h1M3 31h2M41 31h2M3 32h3M7 32h2M37 32h2M40 32h3M3 33h3M7 33h2M11 33h1M34 33h1M37 33h2M40 33h3M4 34h4M9 34h1M11 34h1M17 34h1M28 34h1M34 34h1M36 34h1M38 34h4M5 35h4M10 35h3M16 35h1M29 35h1M33 35h3M37 35h4M11 36h6M28 36h2M32 36h3M12 37h4M17 37h1M23 37h2M28 37h1M30 37h4M17 38h4M23 38h2M27 38h2M18 39h6M25 39h3M19 40h8M34 42h1M12 43h1M32 43h2M31 46h1M13 47h1M21 47h1M14 48h1" />
<path stroke="#22783f" d="M21 2h4M20 3h6M17 4h3M21 4h4M26 4h3M17 5h1M19 5h3M24 5h3M28 5h1M16 6h1M19 6h2M25 6h2M29 6h1M16 7h3M21 7h1M24 7h1M27 7h3M16 8h1M18 8h1M21 8h4M27 8h1M29 8h1M15 9h1M18 9h2M22 9h2M26 9h2M30 9h1M12 10h2M16 10h1M18 10h2M26 10h2M29 10h1M32 10h2M11 11h3M15 11h2M29 11h6M11 12h2M33 12h2M10 13h3M33 13h3M10 14h4M32 14h4M7 15h3M11 15h1M13 15h2M31 15h4M36 15h3M6 16h5M14 16h2M30 16h3M34 16h6M5 17h2M8 17h2M35 17h2M39 17h2M9 18h1M35 18h1M38 18h1M6 19h2M9 19h2M13 19h1M32 19h1M35 19h5M6 20h8M33 20h7M6 21h3M10 21h3M34 21h2M37 21h3M5 22h1M7 22h1M10 22h1M35 22h1M38 22h1M40 22h1M5 23h3M10 23h1M15 23h1M30 23h1M35 23h2M38 23h3M6 24h3M10 24h1M14 24h1M30 24h2M35 24h5M8 25h4M14 25h1M18 25h2M26 25h2M31 25h2M34 25h4M4 26h3M8 26h2M11 26h4M18 26h2M27 26h3M31 26h4M36 26h2M39 26h3M5 27h5M11 27h4M17 27h2M27 27h7M37 27h4M6 28h3M11 28h5M17 28h2M28 28h6M37 28h3M5 29h1M7 29h2M11 29h2M15 29h4M20 29h1M25 29h1M27 29h4M33 29h2M37 29h2M40 29h1M4 30h5M10 30h2M15 30h7M24 30h7M34 30h2M37 30h5M5 31h7M14 31h2M18 31h2M26 31h2M30 31h2M34 31h7M6 32h1M9 32h3M13 32h2M18 32h2M22 32h2M26 32h2M31 32h2M34 32h3M39 32h1M6 33h1M9 33h2M12 33h4M17 33h12M30 33h4M35 33h2M39 33h1M8 34h1M10 34h1M12 34h5M18 34h1M20 34h6M27 34h1M29 34h5M35 34h1M37 34h1M13 35h3M17 35h2M21 35h4M27 35h2M30 35h3M17 36h3M22 36h2M26 36h2M30 36h2M18 37h5M25 37h3M21 38h2M25 38h2M24 39h1M32 40h2M13 41h1M34 41h1M12 42h1M33 42h1" />
<path stroke="#679c30" d="M18 5h1M22 5h2M27 5h1M17 6h2M21 6h4M27 6h2M19 7h2M22 7h2M25 7h2M17 8h1M19 8h2M25 8h2M28 8h1M13 9h2M16 9h1M20 9h2M24 9h2M29 9h1M31 9h2M14 10h2M20 10h1M22 10h2M25 10h1M30 10h2M14 11h1M17 11h4M25 11h4M13 12h4M19 12h2M25 12h2M29 12h4M13 13h2M16 13h1M19 13h2M25 13h2M29 13h1M31 13h2M14 14h1M17 14h1M19 14h2M25 14h2M28 14h1M31 14h1M12 15h1M15 15h4M27 15h4M11 16h1M13 16h1M16 16h1M29 16h1M7 17h1M10 17h1M14 17h3M20 17h2M24 17h2M29 17h3M37 17h2M7 18h2M10 18h2M13 18h2M17 18h1M20 18h1M25 18h1M28 18h1M31 18h2M34 18h1M36 18h2M8 19h1M11 19h2M17 19h1M28 19h1M33 19h2M14 20h1M16 20h1M19 20h1M26 20h1M29 20h1M31 20h2M9 21h1M13 21h8M25 21h7M33 21h1M36 21h1M8 22h2M11 22h1M14 22h2M19 22h1M22 22h2M26 22h1M29 22h2M34 22h1M36 22h2M8 23h2M11 23h1M14 23h1M19 23h1M22 23h2M26 23h1M29 23h1M31 23h1M34 23h1M37 23h1M9 24h1M11 24h3M18 24h10M32 24h3M12 25h2M17 25h1M20 25h2M24 25h2M28 25h3M33 25h1M10 26h1M15 26h3M20 26h1M25 26h2M30 26h1M35 26h1M10 27h1M15 27h2M19 27h2M25 27h2M34 27h3M9 28h2M16 28h1M19 28h2M25 28h3M34 28h3M9 29h2M13 29h2M19 29h1M21 29h1M24 29h1M26 29h1M31 29h2M35 29h2M9 30h1M12 30h3M22 30h2M31 30h3M36 30h1M12 31h2M16 31h2M20 31h6M28 31h2M32 31h2M12 32h1M15 32h3M20 32h2M24 32h2M28 32h3M33 32h1M16 33h1M29 33h1M19 34h1M26 34h1M19 35h2M25 35h2M20 36h2M24 36h2M32 42h1M13 43h1M14 47h1M22 47h1M15 48h1" />
<path stroke="#9abf44" d="M17 9h1M28 9h1M17 10h1M21 10h1M24 10h1M28 10h1M21 11h4M18 12h1M21 12h4M27 12h1M17 13h1M21 13h1M24 13h1M28 13h1M15 14h1M18 14h1M27 14h1M30 14h1M19 15h2M22 15h2M25 15h2M12 16h1M17 16h2M20 16h6M27 16h2M33 16h1M11 17h3M17 17h1M22 17h2M28 17h1M32 17h3M12 18h1M18 18h2M21 18h1M24 18h1M26 18h2M33 18h1M14 19h1M18 19h2M21 19h1M24 19h1M26 19h2M31 19h1M15 20h1M17 20h2M20 20h2M24 20h2M27 20h2M30 20h1M21 21h4M32 21h1M12 22h1M16 22h1M18 22h1M20 22h1M25 22h1M27 22h1M31 22h1M33 22h1M12 23h2M16 23h1M18 23h1M21 23h1M24 23h1M27 23h1M32 23h2M15 24h1M17 24h1M28 24h1M15 25h2M22 25h2M21 26h4M21 27h4M21 28h4M22 29h2M32 41h2M13 42h1M15 45h1M22 45h1M30 45h2M14 46h2M22 46h2M29 46h2M15 47h2M23 47h2M29 47h1M16 48h1" />
<path stroke="#d8d788" d="M17 12h1M28 12h1M15 13h1M18 13h1M22 13h2M27 13h1M30 13h1M16 14h1M21 14h4M29 14h1M21 15h1M24 15h1M19 16h1M26 16h1M18 17h2M26 17h2M15 18h2M22 18h2M29 18h2M15 19h2M20 19h1M22 19h2M25 19h1M29 19h2M22 20h2M13 22h1M17 22h1M21 22h1M24 22h1M28 22h1M32 22h1M17 23h1M20 23h1M25 23h1M28 23h1M16 24h1M29 24h1" />
<path stroke="#5f253e" d="M16 37h1M29 37h1M16 38h1M29 38h1M17 39h1M28 39h1M18 40h1M27 40h1M19 41h8M30 41h1" />
<path stroke="#140510" d="M15 39h1M30 39h1M15 40h1M30 40h1M14 41h1M31 41h1M14 42h1M31 42h1M12 44h2M32 44h2M11 45h1M34 45h1M11 46h1M17 46h1M28 46h1M34 46h1M20 47h1M25 47h1" />
<path stroke="#7f3748" d="M16 39h1M29 39h1M16 40h2M28 40h2M15 41h1M17 41h2M27 41h1M18 42h4M24 42h3M18 43h2M26 43h2M15 44h1M18 44h1M26 44h2M29 44h1M16 45h2M23 45h1M27 45h3M16 46h1M21 46h1M24 46h1" />
<path stroke="rgba(19,6,17,0.3607843137254902)" d="M31 39h3M10 40h3M31 40h1M34 40h1M9 41h4M35 41h3M9 42h3M35 42h5M41 42h2M5 43h7M34 43h9M4 44h8M34 44h9M4 45h7M35 45h6M4 46h7M35 46h6M42 46h1M4 47h1M7 47h6M30 47h13M6 48h8M17 48h26M5 49h38M8 50h4M13 50h25M41 50h2M8 51h3M14 51h24M9 52h2M14 52h4M19 52h7M28 52h5M36 52h2M27 53h4" />
<path stroke="#944c4c" d="M16 41h1M28 41h2M16 42h2M22 42h2M27 42h1M30 42h1M14 43h1M16 43h2M20 43h1M24 43h2M31 43h1M16 44h2M19 44h3M24 44h2M28 44h1M12 45h1M14 45h1M18 45h1M21 45h1M24 45h1M26 45h1M33 45h1M12 46h2M20 46h1M27 46h1M32 46h2M17 47h1M19 47h1M28 47h1" />
<path stroke="#b16c59" d="M15 42h1M28 42h2M15 43h1M21 43h3M28 43h3M14 44h1M22 44h2M30 44h2M13 45h1M19 45h2M25 45h1M32 45h1M18 46h2M25 46h2M18 47h1M26 47h2" />
</svg>
